Papirus/64x64/mimetypes/application-vnd.mysql-workbench-model.svg

<?xml version="1.0" encoding="UTF-8" standalone="no"?>
<svg
   id="_图层_1"
   data-name="图层_1"
   version="1.1"
   viewBox="0 0 128 128"
   width="64"
   height="64"
   sodipodi:docname="application-vnd.mysql-workbench-model.svg"
   xml:space="preserve"
   inkscape:version="1.4 (e7c3feb100, 2024-10-09)"
   xmlns:inkscape="http://www.inkscape.org/namespaces/inkscape"
   xmlns:sodipodi="http://sodipodi.sourceforge.net/DTD/sodipodi-0.dtd"
   xmlns="http://www.w3.org/2000/svg"
   xmlns:svg="http://www.w3.org/2000/svg"><sodipodi:namedview
     id="namedview3"
     pagecolor="#505050"
     bordercolor="#eeeeee"
     borderopacity="1"
     inkscape:showpageshadow="0"
     inkscape:pageopacity="0"
     inkscape:pagecheckerboard="0"
     inkscape:deskcolor="#505050"
     inkscape:zoom="10.6875"
     inkscape:cx="32"
     inkscape:cy="41.169591"
     inkscape:window-width="1920"
     inkscape:window-height="939"
     inkscape:window-x="0"
     inkscape:window-y="34"
     inkscape:window-maximized="1"
     inkscape:current-layer="_图层_1" /><!-- Generator: Adobe Illustrator 29.0.1, SVG Export Plug-In . SVG Version: 2.1.0 Build 192)  --><defs
     id="defs1"><style
       id="style1">
      .st0 {
        fill: #0071e9;
      }

      .st1 {
        fill: #fff;
      }

      .st2 {
        fill: #5aaaff;
        isolation: isolate;
        opacity: .5;
      }
    </style></defs><path
     class="st0"
     d="M18.2,0c-5.6,0-10.2,4.6-10.2,10.2v107.6c0,5.6,4.6,10.2,10.2,10.2h91.6c5.6,0,10.2-4.6,10.2-10.2V40.6L82.2,0H18.2Z"
     id="path1"
     style="fill:#26557c;fill-opacity:1" /><path
     class="st2"
     d="m 82.761404,2.619883 v 29.2 c 0,3.2 2.145542,11.6 11.89801,11.6 h 24.966316 z"
     id="path2"
     style="fill:#1e4463;fill-opacity:1;stroke-width:0.987546" /><path
     class="st2"
     d="M 82.116964,0.02339171 V 29.223392 c 0,3.2 2.2,11.6 12.2,11.6 h 25.599996 z"
     id="path2-3"
     style="opacity:1;isolation:isolate;fill:#396b95;fill-opacity:1" /><g
     id="g4"
     transform="matrix(2.4740741,0,0,2.2724941,-16.407408,-8.8502103)"><path
       style="opacity:0.2"
       d="m 19.566406,27.000302 c -1.194279,-0.02582 -1.755736,0.816763 -1.509765,2.267578 0.07934,0.467599 0.481304,1.135879 1.347656,2.242188 0.963429,1.230341 1.349768,1.900898 1.769531,3.064453 0.661818,1.834412 0.968146,2.44818 1.50586,3.021484 0.417693,0.445313 0.417324,0.447077 0.136718,1.355469 -0.435111,1.408604 -0.523103,4.232828 -0.173828,5.560547 0.522722,1.987146 1.165729,2.888672 2.0625,2.888672 0.640557,0 1.165659,-0.545447 1.353516,-1.40625 0.06514,-0.298446 0.187184,-0.724344 0.271484,-0.947266 0.14554,-0.384657 0.184274,-0.355597 0.753906,0.591797 0.33008,0.549112 0.957894,1.368245 1.396485,1.818359 1.013237,1.039732 2.403552,2.211358 2.503906,2.111328 0.04235,-0.04221 -0.36142,-0.658032 -0.898437,-1.36914 -0.537016,-0.711095 -1.550643,-2.362529 -2.251954,-3.669922 -0.818003,-1.524859 -1.372917,-2.377806 -1.546875,-2.378906 -0.565394,-0.0039 -1.092964,0.904188 -1.398437,2.408203 -0.351935,1.732607 -0.970858,1.441482 -1.47461,-0.69336 -0.290288,-1.230237 -0.139084,-2.887841 0.402344,-4.439453 0.246302,-0.70588 0.447266,-1.357175 0.447266,-1.447265 0,-0.09012 -0.394274,-0.846941 -0.875,-1.681641 -0.480736,-0.834709 -1.044971,-2.01779 -1.253906,-2.628906 -0.5076,-1.484724 -0.748407,-1.917114 -1.767578,-3.177735 -1.049943,-1.298681 -1.148704,-1.898178 -0.3125,-1.892578 0.649491,0.0044 1.698116,0.451326 2.751953,1.173828 0.667101,0.457419 0.89155,0.517578 1.96289,0.517578 1.34539,1e-6 1.63674,0.113429 3.501953,1.365235 1.899596,1.274829 3.31463,2.460235 4.294922,3.597656 0.870619,1.010074 1.344315,1.889301 3.90625,7.244141 0.983511,2.05551 1.855718,3.045873 3.058594,3.470703 1.857859,0.656259 2.492002,0.953992 3.310547,1.552734 l 0.865234,0.632813 -0.583984,0.113281 c -0.320967,0.06274 -1.017927,0.165796 -1.550781,0.228516 -1.11022,0.13077 -1.837891,0.601536 -1.837891,1.189453 0,0.662458 2.214775,2.55855 4.435547,3.796875 1.066888,0.594926 2.094233,1.18043 2.28125,1.302734 0.497611,0.325472 0.632349,0.288222 0.503906,-0.140625 -0.268972,-0.898176 -1.178133,-1.773543 -3.707031,-3.570312 -1.483511,-1.054001 -1.499308,-1.016422 0.482422,-1.216797 1.413361,-0.142915 2.125,-0.389833 2.125,-0.736328 0,-0.157629 -0.716711,-0.996867 -1.59375,-1.867188 C 42.888367,45.889381 42.422813,45.54714 40.910156,44.797177 38.849817,43.775696 38.099798,42.96601 37.625,41.246396 36.916468,38.680147 35.01021,35.665452 32.478516,33.109677 29.864794,30.471146 27.370939,29.012233 25.083984,28.783505 24.154298,28.690524 23.673837,28.546562 23.193359,28.215146 22.378874,27.653354 20.489752,27.020282 19.566406,27.000302 Z m 4.302735,4.966797 c -0.152116,-0.01179 -0.28607,0.01468 -0.376953,0.08984 -0.339059,0.280425 -0.296625,0.621632 0.101562,0.833984 0.187174,0.09981 0.45346,0.451316 0.591797,0.78125 0.465189,1.109423 1.177474,0.36642 0.859375,-0.896484 C 24.944639,32.3776 24.325486,32.00248 23.869141,31.967095 Z"
       id="path5" /><path
       style="fill:#ffffff"
       d="m 19.566406,26 c -1.194279,-0.02582 -1.755736,0.816763 -1.509765,2.267578 0.07934,0.467599 0.481304,1.135879 1.347656,2.242188 0.963429,1.230341 1.349768,1.900898 1.769531,3.064453 0.661818,1.834412 0.968146,2.44818 1.50586,3.021484 0.417693,0.445313 0.417324,0.447077 0.136718,1.355469 -0.435111,1.408604 -0.523103,4.232828 -0.173828,5.560547 0.522722,1.987146 1.165729,2.888672 2.0625,2.888672 0.640557,0 1.165659,-0.545447 1.353516,-1.40625 0.06514,-0.298446 0.187184,-0.724344 0.271484,-0.947266 0.14554,-0.384657 0.184274,-0.355597 0.753906,0.591797 0.33008,0.549112 0.957894,1.368245 1.396485,1.818359 1.013237,1.039732 2.403552,2.211358 2.503906,2.111328 0.04235,-0.04221 -0.36142,-0.658032 -0.898437,-1.36914 -0.537016,-0.711095 -1.550643,-2.362529 -2.251954,-3.669922 -0.818003,-1.524859 -1.372917,-2.377806 -1.546875,-2.378906 -0.565394,-0.0039 -1.092964,0.904188 -1.398437,2.408203 -0.351935,1.732607 -0.970858,1.441482 -1.47461,-0.69336 -0.290288,-1.230237 -0.139084,-2.887841 0.402344,-4.439453 0.246302,-0.70588 0.447266,-1.357175 0.447266,-1.447265 0,-0.09012 -0.394274,-0.846941 -0.875,-1.681641 -0.480736,-0.834709 -1.044971,-2.01779 -1.253906,-2.628906 -0.5076,-1.484724 -0.748407,-1.917114 -1.767578,-3.177735 -1.049943,-1.298681 -1.148704,-1.898178 -0.3125,-1.892578 0.649491,0.0044 1.698116,0.451326 2.751953,1.173828 0.667101,0.457419 0.89155,0.517578 1.96289,0.517578 1.34539,10e-7 1.63674,0.113429 3.501953,1.365235 1.899596,1.274829 3.31463,2.460235 4.294922,3.597656 0.870619,1.010074 1.344315,1.889301 3.90625,7.244141 0.983511,2.05551 1.855718,3.045873 3.058594,3.470703 1.857859,0.656259 2.492002,0.953992 3.310547,1.552734 l 0.865234,0.632813 -0.583984,0.113281 c -0.320967,0.06274 -1.017927,0.165796 -1.550781,0.228516 -1.11022,0.13077 -1.837891,0.601536 -1.837891,1.189453 0,0.662458 2.214775,2.55855 4.435547,3.796875 1.066888,0.594926 2.094233,1.18043 2.28125,1.302734 0.497611,0.325472 0.632349,0.288222 0.503906,-0.140625 -0.268972,-0.898176 -1.178133,-1.773543 -3.707031,-3.570312 -1.483511,-1.054001 -1.499308,-1.016422 0.482422,-1.216797 1.413361,-0.142915 2.125,-0.389833 2.125,-0.736328 0,-0.157629 -0.716711,-0.996867 -1.59375,-1.867188 C 42.888367,44.889079 42.422813,44.546838 40.910156,43.796875 38.849817,42.775394 38.099798,41.965708 37.625,40.246094 36.916468,37.679845 35.01021,34.66515 32.478516,32.109375 29.864794,29.470844 27.370939,28.011931 25.083984,27.783203 24.154298,27.690222 23.673837,27.54626 23.193359,27.214844 22.378874,26.653052 20.489752,26.01998 19.566406,26 Z m 4.302735,4.966797 c -0.152116,-0.01179 -0.28607,0.01468 -0.376953,0.08984 -0.339059,0.280425 -0.296625,0.621632 0.101562,0.833984 0.187174,0.09981 0.45346,0.451316 0.591797,0.78125 0.465189,1.109423 1.177474,0.36642 0.859375,-0.896484 -0.100283,-0.398089 -0.719436,-0.773209 -1.175781,-0.808594 z"
       id="path6" /></g></svg>

<svg xmlns="http://www.w3.org/2000/svg" width="64" height="64" version="1.1">
 <path style="opacity:0.2" d="M 12.8125,5 C 11.254375,5 10,6.2488 10,7.8 v 50.4 c 0,1.5512 1.254375,2.8 2.8125,2.8 h 39.375 C 53.745625,61 55,59.7512 55,58.2 V 22 L 40.9375,19 38,5 Z"/>
 <path style="fill:#26557c" d="M 12.8125,4 C 11.254375,4 10,5.2488 10,6.8 v 50.4 c 0,1.5512 1.254375,2.8 2.8125,2.8 h 39.375 C 53.745625,60 55,58.7512 55,57.2 V 21 L 40.9375,18 38,4 Z"/>
 <path style="opacity:0.2" d="M 55,22 38,5 V 19.166667 C 38,20.736333 39.263667,22 40.833333,22 Z"/>
 <path style="fill:#396b95" d="M 55,21 38,4 V 18.166667 C 38,19.736333 39.263667,21 40.833333,21 Z"/>
 <path style="opacity:0.2" d="m 19.566406,27.000302 c -1.194279,-0.02582 -1.755736,0.816763 -1.509765,2.267578 0.07934,0.467599 0.481304,1.135879 1.347656,2.242188 0.963429,1.230341 1.349768,1.900898 1.769531,3.064453 0.661818,1.834412 0.968146,2.44818 1.50586,3.021484 0.417693,0.445313 0.417324,0.447077 0.136718,1.355469 -0.435111,1.408604 -0.523103,4.232828 -0.173828,5.560547 0.522722,1.987146 1.165729,2.888672 2.0625,2.888672 0.640557,0 1.165659,-0.545447 1.353516,-1.40625 0.06514,-0.298446 0.187184,-0.724344 0.271484,-0.947266 0.14554,-0.384657 0.184274,-0.355597 0.753906,0.591797 0.33008,0.549112 0.957894,1.368245 1.396485,1.818359 1.013237,1.039732 2.403552,2.211358 2.503906,2.111328 0.04235,-0.04221 -0.36142,-0.658032 -0.898437,-1.36914 -0.537016,-0.711095 -1.550643,-2.362529 -2.251954,-3.669922 -0.818003,-1.524859 -1.372917,-2.377806 -1.546875,-2.378906 -0.565394,-0.0039 -1.092964,0.904188 -1.398437,2.408203 -0.351935,1.732607 -0.970858,1.441482 -1.47461,-0.69336 -0.290288,-1.230237 -0.139084,-2.887841 0.402344,-4.439453 0.246302,-0.70588 0.447266,-1.357175 0.447266,-1.447265 0,-0.09012 -0.394274,-0.846941 -0.875,-1.681641 -0.480736,-0.834709 -1.044971,-2.01779 -1.253906,-2.628906 -0.5076,-1.484724 -0.748407,-1.917114 -1.767578,-3.177735 -1.049943,-1.298681 -1.148704,-1.898178 -0.3125,-1.892578 0.649491,0.0044 1.698116,0.451326 2.751953,1.173828 0.667101,0.457419 0.89155,0.517578 1.96289,0.517578 1.34539,1e-6 1.63674,0.113429 3.501953,1.365235 1.899596,1.274829 3.31463,2.460235 4.294922,3.597656 0.870619,1.010074 1.344315,1.889301 3.90625,7.244141 0.983511,2.05551 1.855718,3.045873 3.058594,3.470703 1.857859,0.656259 2.492002,0.953992 3.310547,1.552734 l 0.865234,0.632813 -0.583984,0.113281 c -0.320967,0.06274 -1.017927,0.165796 -1.550781,0.228516 -1.11022,0.13077 -1.837891,0.601536 -1.837891,1.189453 0,0.662458 2.214775,2.55855 4.435547,3.796875 1.066888,0.594926 2.094233,1.18043 2.28125,1.302734 0.497611,0.325472 0.632349,0.288222 0.503906,-0.140625 -0.268972,-0.898176 -1.178133,-1.773543 -3.707031,-3.570312 -1.483511,-1.054001 -1.499308,-1.016422 0.482422,-1.216797 1.413361,-0.142915 2.125,-0.389833 2.125,-0.736328 0,-0.157629 -0.716711,-0.996867 -1.59375,-1.867188 C 42.888367,45.889381 42.422813,45.54714 40.910156,44.797177 38.849817,43.775696 38.099798,42.96601 37.625,41.246396 36.916468,38.680147 35.01021,35.665452 32.478516,33.109677 29.864794,30.471146 27.370939,29.012233 25.083984,28.783505 24.154298,28.690524 23.673837,28.546562 23.193359,28.215146 22.378874,27.653354 20.489752,27.020282 19.566406,27.000302 Z m 4.302735,4.966797 c -0.152116,-0.01179 -0.28607,0.01468 -0.376953,0.08984 -0.339059,0.280425 -0.296625,0.621632 0.101562,0.833984 0.187174,0.09981 0.45346,0.451316 0.591797,0.78125 0.465189,1.109423 1.177474,0.36642 0.859375,-0.896484 -0.100283,-0.398089 -0.719436,-0.773209 -1.175781,-0.808594 z"/>
 <path style="fill:#ffffff" d="M 19.566406 26 C 18.372127 25.974177 17.81067 26.816763 18.056641 28.267578 C 18.135978 28.735177 18.537945 29.403457 19.404297 30.509766 C 20.367726 31.740107 20.754065 32.410664 21.173828 33.574219 C 21.835646 35.408631 22.141974 36.022399 22.679688 36.595703 C 23.097381 37.041016 23.097012 37.04278 22.816406 37.951172 C 22.381295 39.359776 22.293303 42.184 22.642578 43.511719 C 23.1653 45.498865 23.808307 46.400391 24.705078 46.400391 C 25.345635 46.400391 25.870737 45.854944 26.058594 44.994141 C 26.123731 44.695695 26.245778 44.269797 26.330078 44.046875 C 26.475618 43.662218 26.514352 43.691278 27.083984 44.638672 C 27.414064 45.187784 28.041878 46.006917 28.480469 46.457031 C 29.493706 47.496763 30.884021 48.668389 30.984375 48.568359 C 31.026725 48.526152 30.622955 47.910327 30.085938 47.199219 C 29.548922 46.488124 28.535295 44.83669 27.833984 43.529297 C 27.015981 42.004438 26.461067 41.151491 26.287109 41.150391 C 25.721715 41.14645 25.194145 42.054579 24.888672 43.558594 C 24.536737 45.291201 23.917814 45.000076 23.414062 42.865234 C 23.123774 41.634997 23.274978 39.977393 23.816406 38.425781 C 24.062708 37.719901 24.263672 37.068606 24.263672 36.978516 C 24.263672 36.888396 23.869398 36.131575 23.388672 35.296875 C 22.907936 34.462166 22.343701 33.279085 22.134766 32.667969 C 21.627166 31.183245 21.386359 30.750855 20.367188 29.490234 C 19.317245 28.191553 19.218484 27.592056 20.054688 27.597656 C 20.704179 27.60201 21.752804 28.048982 22.806641 28.771484 C 23.473742 29.228903 23.698191 29.289062 24.769531 29.289062 C 26.114921 29.289063 26.406271 29.402491 28.271484 30.654297 C 30.17108 31.929126 31.586114 33.114532 32.566406 34.251953 C 33.437025 35.262027 33.910721 36.141254 36.472656 41.496094 C 37.456167 43.551604 38.328374 44.541967 39.53125 44.966797 C 41.389109 45.623056 42.023252 45.920789 42.841797 46.519531 L 43.707031 47.152344 L 43.123047 47.265625 C 42.80208 47.328364 42.10512 47.431421 41.572266 47.494141 C 40.462046 47.624911 39.734375 48.095677 39.734375 48.683594 C 39.734375 49.346052 41.94915 51.242144 44.169922 52.480469 C 45.23681 53.075395 46.264155 53.660899 46.451172 53.783203 C 46.948783 54.108675 47.083521 54.071425 46.955078 53.642578 C 46.686106 52.744402 45.776945 51.869035 43.248047 50.072266 C 41.764536 49.018265 41.748739 49.055844 43.730469 48.855469 C 45.14383 48.712554 45.855469 48.465636 45.855469 48.119141 C 45.855469 47.961512 45.138758 47.122274 44.261719 46.251953 C 42.888367 44.889079 42.422813 44.546838 40.910156 43.796875 C 38.849817 42.775394 38.099798 41.965708 37.625 40.246094 C 36.916468 37.679845 35.01021 34.66515 32.478516 32.109375 C 29.864794 29.470844 27.370939 28.011931 25.083984 27.783203 C 24.154298 27.690222 23.673837 27.54626 23.193359 27.214844 C 22.378874 26.653052 20.489752 26.01998 19.566406 26 z M 23.869141 30.966797 C 23.717025 30.955002 23.583071 30.981479 23.492188 31.056641 C 23.153129 31.337066 23.195563 31.678273 23.59375 31.890625 C 23.780924 31.99044 24.04721 32.341941 24.185547 32.671875 C 24.650736 33.781298 25.363021 33.038295 25.044922 31.775391 C 24.944639 31.377302 24.325486 31.002182 23.869141 30.966797 z"/>
 <path style="opacity:0.1;fill:#ffffff" d="M 12.8125,4 C 11.254375,4 10,5.2495813 10,6.8007812 v 1 C 10,6.2495812 11.254375,5 12.8125,5 H 38 V 4 Z"/>
</svg>
